X: 141
M: 2/4
L: 1/8
K: G
|:\
"2.f."B2B2  | BAGF | E2E2 | A2A2 | AGFE | DGAF | GGAF | G2G2 |]

